X:2942
T:Chestnut tree, The
R:Hornpipe
O:USA
M:4/4
K:D
D>CD>E F2F2 | G2G2F4 | D2D2 F2A2 | E2E2 D4 |\
d>cB>d c2A2 | B2B2 A2B>c |d3BA2G2 | F2E2D4 :|
B4 B2c2 | d2A4 A>_A | G2B2B2_B2 | A8 |\
B4 B2c2 | d2A4A>A | ^G2G2E2G2 | A4 A4 |
D>CD>E F2F2 | G2G2 F4 | D2D2F2A2 | E2E2D4 |\
d>cB>d c2A2 | B2B2A2B>c | d3B A2G2 | F2E2D4 |]


